X: 1
T:Bacca Pipes (Bampton)
M:6/8
L:1/8
Q:264
O:England; Oxfordshire; Bampton.
B:Lionel Bacon, A Handbook of Morris Dances
Z:http://www.themorrisring.org/music/handbook-morris-dances
P:A(AB)2A
K:ADor
P:A
|:c3  B2c|d2B G3 |cdc A2c|B2G E3 |
  c2B c2e|d2B G2B|c2A B2G|A3  A3:|
P:B
|:g3  g2e|d2B B3 |g3  g2g|a2g e3 |
  efg g2e|d2B G2B|c2A B2G|A3  A3:|

